src/shared/assets/image/button-trash.svg

<svg width="18" height="21" viewBox="0 0 18 21" fill="none" xmlns="http://www.w3.org/2000/svg">
<path d="M17.25 4.08997H0.75" stroke="#556574" stroke-width="1.5" stroke-linecap="round" stroke-linejoin="round"/>
<path d="M6.75 8.7251V14.9051" stroke="#556574" stroke-width="1.5" stroke-linecap="round" stroke-linejoin="round"/>
<path d="M11.25 8.7251V14.9051" stroke="#556574" stroke-width="1.5" stroke-linecap="round" stroke-linejoin="round"/>
<path d="M15.75 4.08997V18.7676C15.75 18.9724 15.671 19.1689 15.5303 19.3138C15.3897 19.4587 15.1989 19.5401 15 19.5401H3C2.80109 19.5401 2.61032 19.4587 2.46967 19.3138C2.32902 19.1689 2.25 18.9724 2.25 18.7676V4.08997" stroke="#556574" stroke-width="1.5" stroke-linecap="round" stroke-linejoin="round"/>
<path d="M12.75 4.09002V2.54501C12.75 2.13525 12.592 1.74227 12.3107 1.45252C12.0294 1.16278 11.6478 1 11.25 1H6.75C6.35218 1 5.97064 1.16278 5.68934 1.45252C5.40804 1.74227 5.25 2.13525 5.25 2.54501V4.09002" stroke="#556574" stroke-width="1.5" stroke-linecap="round" stroke-linejoin="round"/>
</svg>

<svg width="18" height="21" fill="none" xmlns="http://www.w3.org/2000/svg"><path d="M17.25 4.09H.75M6.75 8.73v6.18M11.25 8.73v6.18M15.75 4.09v14.68c0 .2-.08.4-.22.54a.74.74 0 0 1-.53.23H3a.74.74 0 0 1-.53-.23.78.78 0 0 1-.22-.54V4.09M12.75 4.09V2.55c0-.41-.16-.8-.44-1.1A1.48 1.48 0 0 0 11.25 1h-4.5c-.4 0-.78.16-1.06.45-.28.3-.44.69-.44 1.1v1.54" stroke="#556574" stroke-width="1.5" stroke-linecap="round" stroke-linejoin="round"/></svg>
